src/assets/img/google-play-download.svg

<svg width="204" height="61" viewBox="0 0 204 61" fill="none" xmlns="http://www.w3.org/2000/svg">
<g clip-path="url(#clip0_161_597)">
<path fill-rule="evenodd" clip-rule="evenodd" d="M16.2545 0.444532H187.755V0.444336C188.367 0.444336 188.99 0.444336 189.603 0.447358C190.027 0.449763 190.46 0.456106 190.887 0.462366C190.983 0.463775 191.079 0.465179 191.174 0.466534C192.317 0.477788 193.457 0.567087 194.584 0.733637C195.715 0.904272 196.812 1.22361 197.837 1.6811C199.887 2.61452 201.556 4.09415 202.608 5.9119C203.122 6.81763 203.478 7.78742 203.664 8.78801C203.854 9.78806 203.96 10.7993 203.98 11.8132C203.987 12.2766 203.987 12.7415 203.987 13.2048C204 13.7523 204 14.3013 204 14.8546V46.4801C204 47.038 204 47.5839 203.987 48.1329C203.987 48.6021 203.987 49.0567 203.98 49.526C203.96 50.5399 203.854 51.5511 203.664 52.5511C203.479 53.5523 203.123 54.5226 202.608 55.4287C202.085 56.3305 201.406 57.1537 200.594 57.8681C199.788 58.5886 198.857 59.19 197.837 59.6492C196.812 60.1079 195.715 60.4292 194.584 60.6024C193.457 60.7676 192.317 60.8569 191.174 60.8696C190.655 60.8799 190.122 60.8858 189.603 60.8858C188.99 60.8888 188.367 60.8888 187.755 60.8888H16.2545C15.6294 60.8888 15.0117 60.8888 14.3882 60.8858C13.8663 60.8858 13.3485 60.8799 12.8216 60.8696C11.6769 60.8562 10.535 60.7669 9.4054 60.6024C8.27744 60.4304 7.18505 60.1091 6.16483 59.6492C5.14339 59.1903 4.21172 58.5889 3.4054 57.8681C2.59163 57.1564 1.91331 56.3326 1.39681 55.4287C0.878142 54.5233 0.518824 53.5529 0.331323 52.5511C0.141519 51.5512 0.0393816 50.5399 0.0258273 49.526C0.0150189 49.2054 0.010815 48.8916 0.0065778 48.5754C0.00461297 48.4287 0.00264098 48.2816 0 48.1329V13.2048C0.00267228 13.0563 0.00465961 12.9076 0.00664765 12.7589C0.0108614 12.4436 0.0150783 12.1281 0.0258273 11.8133C0.0393775 10.7994 0.141515 9.78798 0.331323 8.78808C0.519343 7.7869 0.87864 6.81703 1.39681 5.91196C1.91354 5.00508 2.59177 4.17793 3.4054 3.46232C4.21479 2.74469 5.14585 2.14373 6.16483 1.68124C7.18506 1.22262 8.27756 0.903202 9.4054 0.733773C10.5348 0.567954 11.6769 0.478686 12.8216 0.466746C12.931 0.465212 13.04 0.463618 13.1487 0.462028C13.5637 0.455959 13.9746 0.449949 14.3882 0.447555C15.0117 0.444532 15.6293 0.444532 16.2545 0.444532ZM12.8753 59.3588C13.3905 59.369 13.8972 59.3748 14.4165 59.3748L187.735 59.3778L189.583 59.3748C190.09 59.3748 190.613 59.369 191.112 59.3588C192.18 59.3473 193.245 59.2655 194.298 59.1139C195.288 58.9661 196.246 58.6879 197.141 58.2886C198.025 57.8931 198.83 57.3748 199.526 56.7536C200.224 56.1447 200.808 55.4427 201.257 54.6735C201.708 53.8844 202.019 53.0388 202.178 52.1666C202.352 51.2466 202.449 50.3167 202.469 49.3842C202.476 48.9239 202.476 48.4767 202.476 47.9885C202.489 47.452 202.489 46.9199 202.489 46.3745V14.9573C202.489 14.4171 202.489 13.8813 202.476 13.3184C202.476 12.8639 202.476 12.4072 202.471 11.9821C202.45 11.0327 202.351 10.0858 202.174 9.14912C202.014 8.28823 201.706 7.4537 201.262 6.67384C200.354 5.11427 198.915 3.84403 197.146 3.04114C196.248 2.64405 195.289 2.36688 194.298 2.21873C193.251 2.06736 192.192 1.98577 191.131 1.97466L189.575 1.9556H14.4174L12.8795 1.97393C11.8084 1.98561 10.7399 2.06794 9.68287 2.22021C8.70243 2.36651 7.75253 2.64177 6.86498 3.03674C5.98204 3.43514 5.17553 3.95307 4.47485 4.57163C3.77338 5.18437 3.1891 5.89304 2.74466 6.67017C2.29342 7.45546 1.98106 8.29686 1.81839 9.16524C1.64358 10.0943 1.54927 11.0338 1.53627 11.9755C1.5263 12.2804 1.51123 13.3184 1.51123 13.3184V47.9959C1.51123 47.9959 1.52538 49.05 1.53618 49.3666C1.54976 50.3098 1.64462 51.2507 1.81996 52.1813C1.98233 53.0473 2.29445 53.8863 2.74544 54.669C3.19153 55.4467 3.77907 56.1548 4.48479 56.7654C5.18043 57.3832 5.98438 57.8985 6.86581 58.2914C7.75541 58.6877 8.70711 58.9649 9.68953 59.1139C10.7431 59.2647 11.808 59.3465 12.8753 59.3588Z" fill="white"/>
<path d="M101.908 33.1817C98.357 33.1817 95.4626 35.913 95.4626 39.6748C95.4626 43.4137 98.357 46.1679 101.908 46.1679C105.461 46.1679 108.355 43.4137 108.355 39.6748C108.354 35.913 105.459 33.1817 101.908 33.1817ZM101.908 43.6122C99.962 43.6122 98.2845 41.9893 98.2845 39.6763C98.2845 37.3389 99.9635 35.7405 101.908 35.7405C103.854 35.7405 105.532 37.3389 105.532 39.6763C105.532 41.9878 103.854 43.6122 101.908 43.6122ZM87.8453 33.1817C84.2941 33.1817 81.3997 35.913 81.3997 39.6748C81.3997 43.4137 84.2941 46.1679 87.8453 46.1679C91.398 46.1679 94.2924 43.4137 94.2924 39.6748C94.2924 35.913 91.398 33.1817 87.8453 33.1817ZM87.8453 43.6122C85.8991 43.6122 84.2217 41.9893 84.2217 39.6763C84.2217 37.3389 85.9006 35.7405 87.8453 35.7405C89.7915 35.7405 91.469 37.3389 91.469 39.6763C91.4705 41.9878 89.7915 43.6122 87.8453 43.6122ZM71.1191 35.1756V37.9298H77.6387C77.4439 39.4794 76.9336 40.6107 76.1545 41.3969C75.2063 42.3557 73.7221 43.4137 71.1191 43.4137C67.1059 43.4137 63.9684 40.142 63.9684 36.084C63.9684 32.026 67.1059 28.7542 71.1191 28.7542C73.2842 28.7542 74.8651 29.6153 76.0322 30.7221L77.9542 28.7786C76.3236 27.2046 74.16 26 71.1191 26C65.6217 26 61 30.5252 61 36.084C61 41.6427 65.6217 46.1679 71.1191 46.1679C74.086 46.1679 76.3251 45.1832 78.075 43.3389C79.8748 41.5191 80.4349 38.9603 80.4349 36.8947C80.4349 36.2565 80.3866 35.6656 80.2885 35.174H71.1191V35.1756ZM139.528 37.3145C138.993 35.8641 137.363 33.1817 134.03 33.1817C130.722 33.1817 127.973 35.8137 127.973 39.6748C127.973 43.3145 130.698 46.1679 134.346 46.1679C137.289 46.1679 138.992 44.3481 139.699 43.2901L137.509 41.8137C136.78 42.8962 135.782 43.6092 134.346 43.6092C132.912 43.6092 131.889 42.945 131.233 41.6412L139.819 38.0504L139.528 37.3145ZM130.771 39.4794C130.698 36.9695 132.693 35.6916 134.129 35.6916C135.247 35.6916 136.196 36.258 136.513 37.0687L130.771 39.4794ZM123.791 45.7756H126.611V26.6901H123.791V45.7756ZM119.167 34.6336H119.071C118.438 33.8702 117.221 33.1817 115.69 33.1817C112.479 33.1817 109.536 36.0351 109.536 39.7008C109.536 43.3405 112.479 46.1695 115.69 46.1695C117.223 46.1695 118.438 45.4809 119.071 44.6947H119.167V45.629C119.167 48.113 117.854 49.4412 115.739 49.4412C114.011 49.4412 112.941 48.1878 112.503 47.1298L110.046 48.1634C110.751 49.884 112.624 52 115.739 52C119.047 52 121.844 50.0321 121.844 45.2351V33.5771H119.169V34.6336H119.167ZM115.933 43.6122C113.987 43.6122 112.358 41.9634 112.358 39.7008C112.358 37.4122 113.987 35.7405 115.933 35.7405C117.854 35.7405 119.362 37.4122 119.362 39.7008C119.362 41.9634 117.854 43.6122 115.933 43.6122ZM152.745 26.6901H145.995V45.7756H148.811V38.545H152.744C155.866 38.545 158.937 36.2595 158.937 32.6183C158.937 28.9771 155.868 26.6901 152.745 26.6901ZM152.818 35.8885H148.811V29.3466H152.818C154.924 29.3466 156.12 31.1099 156.12 32.6183C156.12 34.0962 154.924 35.8885 152.818 35.8885ZM170.229 33.1481C168.19 33.1481 166.077 34.0565 165.203 36.0702L167.703 37.1252C168.238 36.0702 169.234 35.7252 170.278 35.7252C171.735 35.7252 173.216 36.6092 173.24 38.1802V38.3771C172.73 38.0824 171.637 37.6412 170.302 37.6412C167.607 37.6412 164.862 39.1389 164.862 41.9374C164.862 44.4916 167.072 46.1359 169.548 46.1359C171.442 46.1359 172.487 45.2763 173.142 44.2687H173.239V45.742H175.959V38.4244C175.961 35.0382 173.457 33.1481 170.229 33.1481ZM169.888 43.6076C168.967 43.6076 167.679 43.1405 167.679 41.9863C167.679 40.513 169.283 39.9481 170.667 39.9481C171.904 39.9481 172.488 40.2183 173.24 40.5863C173.021 42.3557 171.516 43.6076 169.888 43.6076ZM185.867 33.5649L182.637 41.8397H182.541L179.189 33.5649H176.154L181.18 45.1298L178.315 51.5634H181.253L189 33.5649H185.867ZM160.492 45.7756H163.308V26.6901H160.492V45.7756Z" fill="white"/>
<path d="M71.0565 15.8495C71.0565 17.0526 70.6863 18.0101 69.9443 18.7251C69.1022 19.575 68.0034 19.9999 66.6537 19.9999C65.3607 19.9999 64.2604 19.5692 63.3571 18.7079C62.4524 17.845 62 16.7769 62 15.5021C62 14.2258 62.4524 13.1577 63.3571 12.2963C64.2604 11.4335 65.3607 11.0028 66.6537 11.0028C67.2957 11.0028 67.9093 11.1234 68.4916 11.3631C69.0753 11.6043 69.5426 11.9245 69.892 12.325L69.1052 13.083C68.5125 12.4011 67.6958 12.0609 66.6522 12.0609C65.7086 12.0609 64.8934 12.3796 64.2052 13.017C63.5169 13.6544 63.1735 14.4828 63.1735 15.5006C63.1735 16.5185 63.5169 17.3469 64.2052 17.9843C64.8934 18.6217 65.7086 18.9404 66.6522 18.9404C67.6525 18.9404 68.4871 18.6203 69.1545 17.9786C69.5874 17.5608 69.8383 16.9794 69.9054 16.2343H66.6522V15.1992H70.9924C71.0371 15.4246 71.0565 15.6413 71.0565 15.8495Z" fill="white"/>
<path d="M77.9394 12.2519H73.8606V14.9825H77.5393V16.0176H73.8606V18.7481H77.9394V19.8076H72.7094V11.1938H77.9394V12.2519Z" fill="white"/>
<path d="M82.793 19.8076H81.6419V12.2519H79.1396V11.1938H85.2953V12.2519H82.793V19.8076Z" fill="white"/>
<path d="M89.7488 19.8076V11.1938H90.9V19.8076H89.7488Z" fill="white"/>
<path d="M96.0048 19.8076H94.8537V12.2519H92.3514V11.1938H98.507V12.2519H96.0048V19.8076Z" fill="white"/>
<path d="M110.16 18.695C109.279 19.565 108.184 20 106.875 20C105.566 20 104.471 19.565 103.592 18.695C102.711 17.825 102.272 16.7598 102.272 15.5007C102.272 14.2417 102.711 13.1764 103.592 12.3064C104.471 11.4364 105.566 11 106.875 11C108.177 11 109.27 11.4379 110.154 12.3122C111.037 13.1865 111.479 14.2488 111.479 15.5007C111.479 16.7598 111.039 17.825 110.16 18.695ZM104.441 17.9729C105.104 18.6189 105.915 18.9405 106.875 18.9405C107.835 18.9405 108.647 18.6175 109.309 17.9729C109.971 17.3268 110.304 16.5028 110.304 15.5007C110.304 14.4986 109.971 13.6746 109.309 13.0286C108.647 12.3825 107.835 12.0609 106.875 12.0609C105.915 12.0609 105.104 12.384 104.441 13.0286C103.78 13.6746 103.447 14.4986 103.447 15.5007C103.447 16.5028 103.78 17.3268 104.441 17.9729Z" fill="white"/>
<path d="M113.095 19.8076V11.1938H114.495L118.849 17.8939H118.898L118.849 16.2343V11.1938H120V19.8076H118.798L114.243 12.7816H114.194L114.243 14.4412V19.8076H113.095Z" fill="white"/>
<path d="M71.0565 15.8495C71.0565 17.0526 70.6863 18.0101 69.9443 18.7251C69.1022 19.575 68.0034 19.9999 66.6537 19.9999C65.3607 19.9999 64.2604 19.5692 63.3571 18.7079C62.4524 17.845 62 16.7769 62 15.5021C62 14.2258 62.4524 13.1577 63.3571 12.2963C64.2604 11.4335 65.3607 11.0028 66.6537 11.0028C67.2957 11.0028 67.9093 11.1234 68.4916 11.3631C69.0753 11.6043 69.5426 11.9245 69.892 12.325L69.1052 13.083C68.5125 12.4011 67.6958 12.0609 66.6522 12.0609C65.7086 12.0609 64.8934 12.3796 64.2052 13.017C63.5169 13.6544 63.1735 14.4828 63.1735 15.5006C63.1735 16.5185 63.5169 17.3469 64.2052 17.9843C64.8934 18.6217 65.7086 18.9404 66.6522 18.9404C67.6525 18.9404 68.4871 18.6203 69.1545 17.9786C69.5874 17.5608 69.8383 16.9794 69.9054 16.2343H66.6522V15.1992H70.9924C71.0371 15.4246 71.0565 15.6413 71.0565 15.8495Z" stroke="white" stroke-width="0.2" stroke-miterlimit="10"/>
<path d="M77.9394 12.2519H73.8606V14.9825H77.5393V16.0176H73.8606V18.7481H77.9394V19.8076H72.7094V11.1938H77.9394V12.2519Z" stroke="white" stroke-width="0.2" stroke-miterlimit="10"/>
<path d="M82.793 19.8076H81.6419V12.2519H79.1396V11.1938H85.2953V12.2519H82.793V19.8076Z" stroke="white" stroke-width="0.2" stroke-miterlimit="10"/>
<path d="M89.7488 19.8076V11.1938H90.9V19.8076H89.7488Z" stroke="white" stroke-width="0.2" stroke-miterlimit="10"/>
<path d="M96.0048 19.8076H94.8537V12.2519H92.3514V11.1938H98.507V12.2519H96.0048V19.8076Z" stroke="white" stroke-width="0.2" stroke-miterlimit="10"/>
<path d="M110.16 18.695C109.279 19.565 108.184 20 106.875 20C105.566 20 104.471 19.565 103.592 18.695C102.711 17.825 102.272 16.7598 102.272 15.5007C102.272 14.2417 102.711 13.1764 103.592 12.3064C104.471 11.4364 105.566 11 106.875 11C108.177 11 109.27 11.4379 110.154 12.3122C111.037 13.1865 111.479 14.2488 111.479 15.5007C111.479 16.7598 111.039 17.825 110.16 18.695ZM104.441 17.9729C105.104 18.6189 105.915 18.9405 106.875 18.9405C107.835 18.9405 108.647 18.6175 109.309 17.9729C109.971 17.3268 110.304 16.5028 110.304 15.5007C110.304 14.4986 109.971 13.6746 109.309 13.0286C108.647 12.3825 107.835 12.0609 106.875 12.0609C105.915 12.0609 105.104 12.384 104.441 13.0286C103.78 13.6746 103.447 14.4986 103.447 15.5007C103.447 16.5028 103.78 17.3268 104.441 17.9729Z" stroke="white" stroke-width="0.2" stroke-miterlimit="10"/>
<path d="M113.095 19.8076V11.1938H114.495L118.849 17.8939H118.898L118.849 16.2343V11.1938H120V19.8076H118.798L114.243 12.7816H114.194L114.243 14.4412V19.8076H113.095Z" stroke="white" stroke-width="0.2" stroke-miterlimit="10"/>
<path fill-rule="evenodd" clip-rule="evenodd" d="M15.3947 12.4188C15.1424 12.8578 15 13.4315 15 14.1219V47.3488C15 48.0407 15.1426 48.6141 15.3952 49.053L33.7107 30.7348L15.3947 12.4188ZM16.0856 49.7768C16.7794 50.1998 17.7488 50.1589 18.8176 49.5528L40.3136 37.3377L34.4178 31.4419L16.0856 49.7768ZM41.2163 36.8262L48.1157 32.9063C50.2145 31.7119 50.2145 29.7603 48.1157 28.5674L41.2134 24.6453L35.1249 30.7348L41.2163 36.8262ZM40.3116 24.1329L18.8176 11.9194C17.7487 11.312 16.7793 11.272 16.0855 11.6953L34.4178 30.0277L40.3116 24.1329Z" fill="white"/>
</g>
<defs>
<clipPath id="clip0_161_597">
<rect width="204" height="60.4444" fill="white" transform="translate(0 0.444458)"/>
</clipPath>
</defs>
</svg>

<svg xmlns="http://www.w3.org/2000/svg" width="204" height="61" fill="none"><g clip-path="url(#a)"><path fill="#fff" fill-rule="evenodd" d="M16.255.445h171.5c.612 0 1.235 0 1.848.002a143.894 143.894 0 0 1 1.571.02c1.143.01 2.283.1 3.41.267a12.6 12.6 0 0 1 3.253.947c2.05.934 3.719 2.413 4.771 4.23a9.25 9.25 0 0 1 1.056 2.877c.19 1 .296 2.011.316 3.025.007.464.007.928.007 1.392.013.547.013 1.096.013 1.65V46.48c0 .558 0 1.104-.013 1.653 0 .47 0 .924-.007 1.393a18.116 18.116 0 0 1-.316 3.025 9.207 9.207 0 0 1-1.056 2.878 9.812 9.812 0 0 1-2.014 2.44 10.762 10.762 0 0 1-2.757 1.78c-1.025.459-2.122.78-3.253.953a25.47 25.47 0 0 1-3.41.268c-.519.01-1.052.016-1.571.016-.613.003-1.236.003-1.848.003h-171.5c-.626 0-1.243 0-1.867-.003-.522 0-1.04-.006-1.566-.016a25.809 25.809 0 0 1-3.417-.268 12.462 12.462 0 0 1-3.24-.953 10.741 10.741 0 0 1-2.76-1.78 9.53 9.53 0 0 1-2.008-2.44A9.187 9.187 0 0 1 .33 52.55c-.19-1-.292-2.011-.305-3.025-.011-.32-.015-.634-.02-.95L0 48.132V13.205l.007-.446c.004-.315.008-.63.019-.946C.039 10.8.142 9.788.33 8.788a9.207 9.207 0 0 1 1.066-2.876 9.599 9.599 0 0 1 2.008-2.45c.81-.717 1.74-1.318 2.76-1.78a12.403 12.403 0 0 1 3.24-.948 25.345 25.345 0 0 1 3.417-.267l.327-.005c.415-.006.826-.012 1.24-.014.623-.003 1.24-.003 1.866-.003Zm-3.38 58.914c.515.01 1.022.016 1.541.016l173.319.003 1.848-.003c.507 0 1.03-.006 1.529-.016a24.193 24.193 0 0 0 3.186-.245 10.95 10.95 0 0 0 2.843-.825 9.252 9.252 0 0 0 2.385-1.535 8.36 8.36 0 0 0 1.731-2.08 7.91 7.91 0 0 0 .921-2.507c.174-.92.271-1.85.291-2.783.007-.46.007-.907.007-1.395.013-.537.013-1.07.013-1.614V14.956c0-.54 0-1.076-.013-1.639 0-.454 0-.91-.005-1.336-.021-.95-.12-1.896-.297-2.833a7.931 7.931 0 0 0-.912-2.475c-.908-1.56-2.347-2.83-4.116-3.633a11.104 11.104 0 0 0-2.848-.822 23.892 23.892 0 0 0-3.167-.244l-1.556-.02H14.417l-1.537.019c-1.072.012-2.14.094-3.197.246-.98.147-1.93.422-2.818.817a9.531 9.531 0 0 0-2.39 1.535 8.197 8.197 0 0 0-1.73 2.098 7.94 7.94 0 0 0-.927 2.495c-.174.93-.269 1.869-.282 2.81-.01.305-.025 1.343-.025 1.343v34.678s.014 1.054.025 1.37c.014.944.109 1.885.284 2.815.162.866.474 1.705.925 2.488a8.126 8.126 0 0 0 1.74 2.096 9.26 9.26 0 0 0 2.38 1.526c.89.397 1.842.674 2.825.823 1.053.15 2.118.233 3.185.245Z" clip-rule="evenodd"/><path fill="#fff" d="M101.908 33.182c-3.551 0-6.445 2.731-6.445 6.493 0 3.739 2.894 6.493 6.445 6.493 3.553 0 6.447-2.754 6.447-6.493-.001-3.762-2.896-6.493-6.447-6.493Zm0 10.43c-1.946 0-3.624-1.623-3.624-3.936 0-2.337 1.68-3.936 3.624-3.936 1.946 0 3.624 1.599 3.624 3.936 0 2.312-1.678 3.936-3.624 3.936Zm-14.063-10.43c-3.55 0-6.445 2.731-6.445 6.493 0 3.739 2.894 6.493 6.445 6.493 3.553 0 6.447-2.754 6.447-6.493 0-3.762-2.894-6.493-6.447-6.493Zm0 10.43c-1.946 0-3.623-1.623-3.623-3.936 0-2.337 1.679-3.936 3.623-3.936 1.947 0 3.624 1.599 3.624 3.936.002 2.312-1.677 3.936-3.624 3.936ZM71.12 35.176v2.754h6.52c-.195 1.55-.705 2.68-1.484 3.467-.949.959-2.433 2.017-5.036 2.017-4.013 0-7.15-3.272-7.15-7.33s3.137-7.33 7.15-7.33c2.165 0 3.746.861 4.913 1.968l1.922-1.943C76.324 27.205 74.16 26 71.12 26 65.622 26 61 30.525 61 36.084c0 5.559 4.622 10.084 10.12 10.084 2.966 0 5.205-.985 6.955-2.83 1.8-1.819 2.36-4.378 2.36-6.443 0-.639-.048-1.23-.147-1.721H71.12v.002Zm68.409 2.139c-.535-1.45-2.165-4.133-5.498-4.133-3.308 0-6.057 2.632-6.057 6.493 0 3.64 2.725 6.493 6.373 6.493 2.943 0 4.646-1.82 5.353-2.878l-2.19-1.476c-.729 1.082-1.727 1.795-3.163 1.795-1.434 0-2.457-.664-3.113-1.968l8.586-3.59-.291-.736Zm-8.757 2.164c-.073-2.51 1.922-3.787 3.358-3.787 1.118 0 2.067.566 2.384 1.377l-5.742 2.41Zm-6.98 6.297h2.82V26.69h-2.82v19.086Zm-4.624-11.142h-.096c-.633-.764-1.85-1.452-3.381-1.452-3.211 0-6.154 2.853-6.154 6.519 0 3.64 2.943 6.468 6.154 6.468 1.533 0 2.748-.688 3.381-1.474h.096v.934c0 2.484-1.313 3.812-3.428 3.812-1.728 0-2.798-1.253-3.236-2.311l-2.457 1.033c.705 1.721 2.578 3.837 5.693 3.837 3.308 0 6.105-1.968 6.105-6.765V33.577h-2.675v1.057h-.002Zm-3.234 8.978c-1.946 0-3.575-1.649-3.575-3.911 0-2.289 1.629-3.96 3.575-3.96 1.921 0 3.429 1.671 3.429 3.96 0 2.262-1.508 3.911-3.429 3.911Zm36.812-16.922h-6.75v19.086h2.816v-7.231h3.933c3.122 0 6.193-2.285 6.193-5.927 0-3.64-3.069-5.928-6.192-5.928Zm.073 9.198h-4.007v-6.541h4.007c2.106 0 3.302 1.763 3.302 3.271 0 1.478-1.196 3.27-3.302 3.27Zm17.411-2.74c-2.039 0-4.152.908-5.026 2.922l2.5 1.055c.535-1.055 1.531-1.4 2.575-1.4 1.457 0 2.938.884 2.962 2.455v.197c-.51-.295-1.603-.736-2.938-.736-2.695 0-5.44 1.498-5.44 4.296 0 2.555 2.21 4.199 4.686 4.199 1.894 0 2.939-.86 3.594-1.867h.097v1.473h2.72v-7.318c.002-3.386-2.502-5.276-5.73-5.276Zm-.341 10.46c-.921 0-2.209-.467-2.209-1.622 0-1.473 1.604-2.038 2.988-2.038 1.237 0 1.821.27 2.573.638-.219 1.77-1.724 3.022-3.352 3.022Zm15.979-10.043-3.23 8.275h-.096l-3.352-8.275h-3.035l5.026 11.565-2.865 6.433h2.938L189 33.565h-3.133Zm-25.375 12.21h2.816V26.69h-2.816v19.086ZM71.056 15.85c0 1.203-.37 2.16-1.112 2.875-.842.85-1.94 1.275-3.29 1.275-1.293 0-2.394-.43-3.297-1.292-.905-.863-1.357-1.931-1.357-3.206 0-1.276.452-2.344 1.357-3.206.903-.862 2.004-1.293 3.297-1.293.642 0 1.255.12 1.838.36.583.241 1.05.562 1.4.962l-.787.758c-.593-.682-1.41-1.022-2.453-1.022a3.48 3.48 0 0 0-2.447.956c-.688.637-1.032 1.466-1.032 2.484s.344 1.846 1.032 2.483a3.48 3.48 0 0 0 2.447.956c1 0 1.835-.32 2.502-.961.433-.418.684-1 .751-1.745h-3.253V15.2h4.34c.045.226.064.442.064.65ZM77.94 12.252h-4.08v2.73h3.68v1.036h-3.68v2.73h4.08v1.06h-5.23v-8.614h5.23v1.058ZM82.793 19.808h-1.151v-7.556H79.14v-1.058h6.155v1.058h-2.502v7.556ZM89.749 19.808v-8.614H90.9v8.614h-1.151ZM96.005 19.808h-1.151v-7.556H92.35v-1.058h6.156v1.058h-2.502v7.556ZM110.16 18.695c-.881.87-1.976 1.305-3.285 1.305-1.309 0-2.404-.435-3.283-1.305-.881-.87-1.32-1.935-1.32-3.194 0-1.26.439-2.325 1.32-3.195.879-.87 1.974-1.306 3.283-1.306 1.302 0 2.395.438 3.279 1.312.883.875 1.325 1.937 1.325 3.189 0 1.259-.44 2.324-1.319 3.194Zm-5.719-.722c.663.646 1.474.968 2.434.968.96 0 1.772-.323 2.434-.968.662-.646.995-1.47.995-2.472s-.333-1.826-.995-2.472c-.662-.646-1.474-.968-2.434-.968-.96 0-1.771.323-2.434.968-.661.646-.994 1.47-.994 2.472s.333 1.826.994 2.472ZM113.095 19.808v-8.614h1.4l4.354 6.7h.049l-.049-1.66v-5.04H120v8.614h-1.202l-4.555-7.026h-.049l.049 1.66v5.366h-1.148Z"/><path stroke="#fff" stroke-miterlimit="10" stroke-width=".2" d="M71.056 15.85c0 1.203-.37 2.16-1.112 2.875-.842.85-1.94 1.275-3.29 1.275-1.293 0-2.394-.43-3.297-1.292-.905-.863-1.357-1.931-1.357-3.206 0-1.276.452-2.344 1.357-3.206.903-.862 2.004-1.293 3.297-1.293.642 0 1.255.12 1.838.36.583.241 1.05.562 1.4.962l-.787.758c-.593-.682-1.41-1.022-2.453-1.022a3.48 3.48 0 0 0-2.447.956c-.688.637-1.032 1.466-1.032 2.484s.344 1.846 1.032 2.483a3.48 3.48 0 0 0 2.447.956c1 0 1.835-.32 2.502-.961.433-.418.684-1 .751-1.745h-3.253V15.2h4.34c.045.226.064.442.064.65ZM77.94 12.252h-4.08v2.73h3.68v1.036h-3.68v2.73h4.08v1.06h-5.23v-8.614h5.23v1.058ZM82.793 19.808h-1.151v-7.556H79.14v-1.058h6.155v1.058h-2.502v7.556ZM89.749 19.808v-8.614H90.9v8.614h-1.151ZM96.005 19.808h-1.151v-7.556H92.35v-1.058h6.156v1.058h-2.502v7.556ZM110.16 18.695c-.881.87-1.976 1.305-3.285 1.305-1.309 0-2.404-.435-3.283-1.305-.881-.87-1.32-1.935-1.32-3.194 0-1.26.439-2.325 1.32-3.195.879-.87 1.974-1.306 3.283-1.306 1.302 0 2.395.438 3.279 1.312.883.875 1.325 1.937 1.325 3.189 0 1.259-.44 2.324-1.319 3.194Zm-5.719-.722c.663.646 1.474.968 2.434.968.96 0 1.772-.323 2.434-.968.662-.646.995-1.47.995-2.472s-.333-1.826-.995-2.472c-.662-.646-1.474-.968-2.434-.968-.96 0-1.771.323-2.434.968-.661.646-.994 1.47-.994 2.472s.333 1.826.994 2.472ZM113.095 19.808v-8.614h1.4l4.354 6.7h.049l-.049-1.66v-5.04H120v8.614h-1.202l-4.555-7.026h-.049l.049 1.66v5.366h-1.148Z"/><path fill="#fff" fill-rule="evenodd" d="M15.395 12.419c-.253.439-.395 1.012-.395 1.703v33.227c0 .692.143 1.265.395 1.704l18.316-18.318-18.316-18.316Zm.69 37.358c.694.423 1.664.382 2.733-.224l21.496-12.215-5.896-5.896-18.332 18.335Zm25.131-12.95 6.9-3.92c2.099-1.195 2.099-3.147 0-4.34l-6.903-3.922-6.088 6.09 6.091 6.091Zm-.904-12.694L18.818 11.919c-1.07-.607-2.039-.647-2.733-.224l18.333 18.333 5.894-5.895Z" clip-rule="evenodd"/></g><defs><clipPath id="a"><path fill="#fff" d="M0 .444h204v60.444H0z"/></clipPath></defs></svg>
